images/right-arrow.svg

<?xml version="1.0" encoding="UTF-8"?>
<svg width="20px" height="15px" viewBox="0 0 20 15" version="1.1" xmlns="http://www.w3.org/2000/svg" xmlns:xlink="http://www.w3.org/1999/xlink">
    <!-- Generator: sketchtool 50.2 (55047) - http://www.bohemiancoding.com/sketch -->
    <title>3B3210C9-CBF7-4980-9176-449B568352AC</title>
    <desc>Created with sketchtool.</desc>
    <defs></defs>
    <g id="Future-Project-Desktop" stroke="none" stroke-width="1" fill="none" fill-rule="evenodd">
        <g id="Homepage-" transform="translate(-1255.000000, -5723.000000)" fill="#212D3C">
            <g id="homepage/pre-footer" transform="translate(165.000000, 5497.000000)">
                <g id="Group" transform="translate(0.000000, 170.000000)">
                    <g id="join" transform="translate(600.000000, 5.000000)">
                        <g id="elements/right-arrow" transform="translate(490.000000, 51.000000)">
                            <g id="right-arrow">
                                <path d="M13.4677675,0.884550086 C13.1953001,0.603816638 12.7418228,0.603816638 12.4598285,0.884550086 C12.1873611,1.1557993 12.1873611,1.60724903 12.4598285,1.87786596 L17.5706574,6.96584356 L0.705620832,6.96584356 C0.312480152,6.96647584 0,7.27755885 0,7.66894174 C0,8.06032463 0.312480152,8.38152416 0.705620832,8.38152416 L17.5706574,8.38152416 L12.4598285,13.4600175 C12.1873611,13.740751 12.1873611,14.192833 12.4598285,14.4634499 C12.7418228,14.7441834 13.1959352,14.7441834 13.4677675,14.4634499 L19.7885043,8.17097408 C20.0704986,7.89972487 20.0704986,7.44827513 19.7885043,7.17765821 L13.4677675,0.884550086 Z" id="Shape" fill-rule="nonzero"></path>
                            </g>
                        </g>
                    </g>
                </g>
            </g>
        </g>
    </g>
</svg>

<svg height="15" viewBox="0 0 20 15" width="20" xmlns="http://www.w3.org/2000/svg"><path d="m13.4677675.88455009c-.2724674-.28073345-.7259447-.28073345-1.007939 0-.2724674.27124921-.2724674.72269894 0 .99331587l5.1108289 5.0879776h-16.86503657c-.39314068.00063228-.70562083.31171529-.70562083.70309818s.31248015.71258242.70562083.71258242h16.86503657l-5.1108289 5.07849334c-.2724674.2807335-.2724674.7328155 0 1.0034324.2819943.2807335.7361067.2807335 1.007939 0l6.3207368-6.29247582c.2819943-.27124921.2819943-.72269895 0-.99331587z" fill="#212d3c" transform=""/></svg>
